pix_core/f/eps.svg

<svg fill="none" preserveAspectRatio="xMinYMid meet" viewBox="0 0 24 24" xmlns="http://www.w3.org/2000/svg"><g fill="#fff"><path clip-rule="evenodd" d="m7.00003 2.5c-1.38071 0-2.5 1.11929-2.5 2.5v6c0 .2761.22386.5.5.5.27615 0 .5-.2239.5-.5v-6c0-.82843.67158-1.5 1.5-1.5h5.99997c.2762 0 .5.22386.5.5v3c0 .82843.6716 1.5 1.5 1.5h3c.2762 0 .5.22386.5.5v10c0 .8284-.6715 1.5-1.5 1.5h-9.99997c-.82842 0-1.5-.6716-1.5-1.5 0-.2761-.22385-.5-.5-.5-.27614 0-.5.2239-.5.5 0 1.3807 1.11929 2.5 2.5 2.5h9.99997c1.3807 0 2.5-1.1193 2.5-2.5v-10.17157c0-.66304-.2634-1.29893-.7322-1.76777l-3.8284-3.82843c-.4689-.46884-1.1048-.73223-1.7678-.73223zm7.49997 1.70711v2.79289c0 .27614.2239.5.5.5h2.7929z" fill-rule="evenodd"/><path d="m3.39572 12.6479c-.06591 0-.11935.0535-.11935.1194v4.2428c0 .0659.05344.1194.11935.1194h2.84699c.06592 0 .11936-.0535.11936-.1194v-.6819c0-.0659-.05344-.1193-.11936-.1193h-1.85342v-.9298h1.55911c.06592 0 .11936-.0535.11936-.1194v-.6644c0-.0659-.05344-.1193-.11936-.1193h-1.55911v-.8045h1.85051c.06592 0 .11936-.0535.11936-.1194v-.6848c0-.0659-.05344-.1194-.11936-.1194z"/><path clip-rule="evenodd" d="m7.29268 12.6479c-.06592 0-.11936.0535-.11936.1194v4.2428c0 .0659.05344.1194.11936.1194h.8742c.06592 0 .11936-.0535.11936-.1194v-1.393h.65868c.34477 0 .64718-.0564.90343-.174.25765-.1173.45915-.2863.59915-.5082.1401-.222.2078-.4819.2078-.7747 0-.2894-.0679-.551-.2065-.7813-.1389-.2309-.3393-.4099-.59653-.5376-.25731-.1306-.56118-.1934-.90735-.1934zm1.65224 2.0486h-.65868v-1.125h.65868c.15216 0 .26405.0301.34437.0807.08578.054.14627.1236.18481.2099.04133.0926.06248.1934.06248.3039 0 .1085-.02108.2019-.06066.2826-.03659.0746-.0944.1346-.17874.1801-.08232.0425-.19736.0678-.35226.0678z" fill-rule="evenodd"/><path d="m12.0647 12.7371c.2042-.0598.4262-.0892.6653-.0892.3272 0 .6177.059.8687.1803.2494.1206.446.2876.5862.502.1427.2152.2132.4608.2132.7333 0 .0554-.0449.1002-.1002.1002h-.875c-.0553 0-.1002-.0448-.1002-.1002 0-.1109-.0232-.203-.0664-.2797l-.0012-.0021c-.0404-.0762-.103-.1377-.1925-.1841-.0851-.045-.1995-.071-.3472-.071-.1432 0-.255.0221-.3397.0613l-.0015.0006c-.0875.0387-.1471.0889-.1855.148-.0394.0591-.0602.1266-.0602.2037 0 .0549.013.1022.038.1441.0285.0447.0727.0901.1367.135.0653.0459.1478.0907.2488.1337.1018.0434.2207.0862.3571.1285.2369.0717.4468.1529.6289.2439.1847.0914.3418.1952.4695.3125.1289.1184.2275.2539.2941.4066.0671.1535.0994.325.0994.5128 0 .1992-.0388.3811-.1189.5434-.0798.1617-.1951.2982-.3443.409-.1483.1102-.3233.1924-.5232.2481-.2001.0557-.4217.0829-.664.0829-.2202 0-.4373-.0285-.6512-.0856-.2155-.0595-.4133-.1493-.591-.2692-.1791-.1222-.3231-.2788-.4305-.4682-.1098-.1938-.1627-.42-.1627-.6748 0-.0553.0448-.1002.1002-.1002h.8837c.0554 0 .1002.0449.1002.1002 0 .1234.0192.2211.053.2968.0347.0777.0822.1382.142.184.0642.0476.1415.0834.2335.106.0969.0233.2043.0353.3228.0353.1443 0 .2545-.0205.3354-.0561.085-.0367.1412-.0846.1753-.1399l.0009-.0016c.038-.0592.0576-.1264.0576-.2043 0-.066-.0102-.122-.0285-.1693l-.0014-.0036c-.0145-.0423-.0434-.0846-.0928-.1261l-.0015-.0012c-.0509-.0444-.1269-.0916-.2318-.1403-.1042-.0484-.2417-.0997-.4136-.1538-.197-.0637-.3852-.1357-.563-.2156-.1785-.0812-.3385-.1763-.4785-.2854l-.0013-.001c-.1407-.1134-.2532-.2457-.3362-.3968-.0833-.1558-.1239-.335-.1239-.5327 0-.1934.0426-.3715.1295-.5321.0856-.1604.2052-.2967.3572-.4086.1516-.1137.3292-.1998.5307-.2595z"/></g></svg>

<svg viewBox="0 0 24 24" fill="none" xmlns="http://www.w3.org/2000/svg" preserveAspectRatio="xMinYMid meet">
<path fill-rule="evenodd" clip-rule="evenodd" d="M7.00003 2.5C5.61932 2.5 4.50003 3.61929 4.50003 5V11C4.50003 11.2761 4.72389 11.5 5.00003 11.5C5.27618 11.5 5.50003 11.2761 5.50003 11V5C5.50003 4.17157 6.17161 3.5 7.00003 3.5H13C13.2762 3.5 13.5 3.72386 13.5 4V7C13.5 7.82843 14.1716 8.5 15 8.5H18C18.2762 8.5 18.5 8.72386 18.5 9V19C18.5 19.8284 17.8285 20.5 17 20.5H7.00003C6.17161 20.5 5.50003 19.8284 5.50003 19C5.50003 18.7239 5.27618 18.5 5.00003 18.5C4.72389 18.5 4.50003 18.7239 4.50003 19C4.50003 20.3807 5.61932 21.5 7.00003 21.5H17C18.3807 21.5 19.5 20.3807 19.5 19V8.82843C19.5 8.16539 19.2366 7.5295 18.7678 7.06066L14.9394 3.23223C14.4705 2.76339 13.8346 2.5 13.1716 2.5H7.00003ZM14.5 4.20711V7C14.5 7.27614 14.7239 7.5 15 7.5H17.7929L14.5 4.20711Z" fill="#fff"/>
<path  d="M3.39572 12.6479C3.32981 12.6479 3.27637 12.7014 3.27637 12.7673V17.0101C3.27637 17.076 3.32981 17.1295 3.39572 17.1295H6.24271C6.30863 17.1295 6.36207 17.076 6.36207 17.0101V16.3282C6.36207 16.2623 6.30863 16.2089 6.24271 16.2089H4.38929V15.2791H5.9484C6.01432 15.2791 6.06776 15.2256 6.06776 15.1597V14.4953C6.06776 14.4294 6.01432 14.376 5.9484 14.376H4.38929V13.5715H6.2398C6.30572 13.5715 6.35916 13.518 6.35916 13.4521V12.7673C6.35916 12.7014 6.30572 12.6479 6.2398 12.6479H3.39572Z" fill="#fff"/>
<path fill-rule="evenodd" clip-rule="evenodd" d="M7.29268 12.6479C7.22676 12.6479 7.17332 12.7014 7.17332 12.7673V17.0101C7.17332 17.076 7.22676 17.1295 7.29268 17.1295H8.16688C8.2328 17.1295 8.28624 17.076 8.28624 17.0101V15.6171H8.94492C9.28969 15.6171 9.5921 15.5607 9.84835 15.4431C10.106 15.3258 10.3075 15.1568 10.4475 14.9349C10.5876 14.7129 10.6553 14.453 10.6553 14.1602C10.6553 13.8708 10.5874 13.6092 10.4488 13.3789C10.3099 13.148 10.1095 12.969 9.85227 12.8413C9.59496 12.7107 9.29109 12.6479 8.94492 12.6479H7.29268ZM8.94492 14.6965H8.28624V13.5715H8.94492C9.09708 13.5715 9.20897 13.6016 9.28929 13.6522C9.37507 13.7062 9.43556 13.7758 9.4741 13.8621C9.51543 13.9547 9.53658 14.0555 9.53658 14.166C9.53658 14.2745 9.5155 14.3679 9.47592 14.4486C9.43933 14.5232 9.38152 14.5832 9.29718 14.6287C9.21486 14.6712 9.09982 14.6965 8.94492 14.6965Z" fill="#fff"/>
<path  d="M12.0647 12.7371C12.2689 12.6773 12.4909 12.6479 12.73 12.6479C13.0572 12.6479 13.3477 12.7069 13.5987 12.8282C13.8481 12.9488 14.0447 13.1158 14.1849 13.3302C14.3276 13.5454 14.3981 13.791 14.3981 14.0635C14.3981 14.1189 14.3532 14.1637 14.2979 14.1637H13.4229C13.3676 14.1637 13.3227 14.1189 13.3227 14.0635C13.3227 13.9526 13.2995 13.8605 13.2563 13.7838L13.2551 13.7817C13.2147 13.7055 13.1521 13.644 13.0626 13.5976C12.9775 13.5526 12.8631 13.5266 12.7154 13.5266C12.5722 13.5266 12.4604 13.5487 12.3757 13.5879L12.3742 13.5885C12.2867 13.6272 12.2271 13.6774 12.1887 13.7365C12.1493 13.7956 12.1285 13.8631 12.1285 13.9402C12.1285 13.9951 12.1415 14.0424 12.1665 14.0843C12.195 14.129 12.2392 14.1744 12.3032 14.2193C12.3685 14.2652 12.451 14.31 12.552 14.353C12.6538 14.3964 12.7727 14.4392 12.9091 14.4815C13.146 14.5532 13.3559 14.6344 13.538 14.7254C13.7227 14.8168 13.8798 14.9206 14.0075 15.0379C14.1364 15.1563 14.235 15.2918 14.3016 15.4445C14.3687 15.598 14.401 15.7695 14.401 15.9573C14.401 16.1565 14.3622 16.3384 14.2821 16.5007C14.2023 16.6624 14.087 16.7989 13.9378 16.9097C13.7895 17.0199 13.6145 17.1021 13.4146 17.1578C13.2145 17.2135 12.9929 17.2407 12.7506 17.2407C12.5304 17.2407 12.3133 17.2122 12.0994 17.1551C11.8839 17.0956 11.6861 17.0058 11.5084 16.8859C11.3293 16.7637 11.1853 16.6071 11.0779 16.4177C10.9681 16.2239 10.9152 15.9977 10.9152 15.7429C10.9152 15.6876 10.96 15.6427 11.0154 15.6427H11.8991C11.9545 15.6427 11.9993 15.6876 11.9993 15.7429C11.9993 15.8663 12.0185 15.964 12.0523 16.0397C12.087 16.1174 12.1345 16.1779 12.1943 16.2237C12.2585 16.2713 12.3358 16.3071 12.4278 16.3297C12.5247 16.353 12.6321 16.365 12.7506 16.365C12.8949 16.365 13.0051 16.3445 13.086 16.3089C13.171 16.2722 13.2272 16.2243 13.2613 16.169L13.2622 16.1674C13.3002 16.1082 13.3198 16.041 13.3198 15.9631C13.3198 15.8971 13.3096 15.8411 13.2913 15.7938L13.2899 15.7902C13.2754 15.7479 13.2465 15.7056 13.1971 15.6641L13.1956 15.6629C13.1447 15.6185 13.0687 15.5713 12.9638 15.5226C12.8596 15.4742 12.7221 15.4229 12.5502 15.3688C12.3532 15.3051 12.165 15.2331 11.9872 15.1532C11.8087 15.072 11.6487 14.9769 11.5087 14.8678L11.5074 14.8668C11.3667 14.7534 11.2542 14.6211 11.1712 14.47C11.0879 14.3142 11.0473 14.135 11.0473 13.9373C11.0473 13.7439 11.0899 13.5658 11.1768 13.4052C11.2624 13.2448 11.382 13.1085 11.534 12.9966C11.6856 12.8829 11.8632 12.7968 12.0647 12.7371Z" fill="#fff"/>
</svg>
